packages/core/src/svgs/tokens/branded/GRND.svg

<svg width="24" height="24" viewBox="0 0 24 24" fill="none" xmlns="http://www.w3.org/2000/svg">
<path d="M3.06497 19.649C2.42363 19.649 2.62368 19.1194 2.80019 18.8605H2L3.06497 15.695L6.52465 13.8475L4.64772 12.2176C4.57293 12.1527 4.51787 12.0681 4.48873 11.9735C4.45962 11.8788 4.45763 11.7779 4.48297 11.6822L5.67149 7.45175C5.70866 7.3238 5.79269 7.21455 5.90685 7.14581L10.3903 4.42748C10.4727 4.38041 10.5669 4.35099 10.6668 4.35099H20.9106C20.997 4.35072 21.0823 4.37163 21.1587 4.41189C21.2352 4.45214 21.3007 4.5105 21.3494 4.58189C21.3982 4.65327 21.4288 4.7355 21.4384 4.82141C21.448 4.90732 21.4365 4.99428 21.4049 5.0747L21.1694 5.66896H21.4696C21.5544 5.66882 21.6379 5.68905 21.7132 5.72794C21.7886 5.76682 21.8535 5.82323 21.9026 5.89243C21.9516 5.96161 21.9833 6.04156 21.995 6.12554C22.0066 6.20952 21.998 6.29508 21.9697 6.37502L21.1694 8.56969L17.7038 10.4172L18.7689 11.2116C18.7689 11.2116 19.5691 11.7411 19.2985 11.9999C19.9456 12.2117 19.9279 12.6177 19.8339 12.7883L18.3041 17.0836C18.2601 17.2069 18.1721 17.3097 18.057 17.3719L13.8265 19.5901C13.7483 19.6301 13.6614 19.6503 13.5735 19.649H3.06497Z" fill="black"/>
<path d="M20.2398 5.52777H10.5316L6.58936 7.84599L5.54206 11.4469L7.63669 13.1767H12.1025L11.8378 14.3535H7.63669L3.70042 16.3422L3.17676 17.8838H12.885L16.8273 15.8245L18.1393 11.9646L15.7799 10.2348H11.3141L11.8437 9.05805H16.0388L19.7162 7.06932L20.2398 5.52777Z" fill="#FE3000"/>
</svg>

<svg xmlns="http://www.w3.org/2000/svg" width="24" height="24" fill="none" viewBox="0 0 24 24">
    <path fill="#000" d="M3.065 19.649c-.641 0-.441-.53-.265-.789H2l1.065-3.165 3.46-1.848-1.877-1.63a.53.53 0 0 1-.165-.535l1.188-4.23a.53.53 0 0 1 .236-.306l4.483-2.719a.56.56 0 0 1 .277-.076H20.91a.53.53 0 0 1 .494.724l-.236.594h.3a.53.53 0 0 1 .5.706l-.8 2.195-3.465 1.847 1.065.795s.8.53.53.788c.647.212.629.618.535.788l-1.53 4.296a.53.53 0 0 1-.247.288l-4.23 2.218a.54.54 0 0 1-.254.059z"/>
    <path fill="#FE3000" d="M20.24 5.528h-9.708L6.589 7.846l-1.047 3.6 2.095 1.73h4.466l-.265 1.178H7.637L3.7 16.342l-.523 1.542h9.708l3.942-2.06 1.312-3.86-2.36-1.73h-4.465l.53-1.176h4.195l3.677-1.989z"/>
</svg>
